X:1
T:Title
%%score 1 { ( 2 4 ) | ( 3 5 ) }
L:1/8
M:3/4
K:D
V:1 treble nm="Akkordion"
V:2 bass nm="Grand Piano"
V:4 bass 
V:3 treble 
V:5 treble 
V:1
 z2 z[Q:1/4=90] A BF | A3 F Ad | c3 E FG | B3 A E=F |[M:3/8] F3 | ABF |[M:3/4] A3 F Ad | c3 E Ac | %8
 e3 d F^G |[M:3/8] A3 | z3 |[M:3/4] z6 | z6 | z6 |[M:2/4] z4 |[M:1/4] z2 |[M:3/4] z6 | z6 | z6 | %19
[M:3/8] z3 |] %20
V:2
 z2 z A, B,F, | z[K:treble] A AF, AD | z A AE, GG, | z A AA, z =F |[M:3/8] [FA]3 | A,B,F, | %6
[M:3/4] z[K:treble] A AF, AD | z e eE, cC | z d dD [EBd]2 |[M:3/8] [EAc][FAd][GAe] | %10
 [DFA][Fd]>[FB] |[M:3/4] [Gc]3 G c>B | [FA]4 [FA]2 | [Fd]3 A GF |[M:2/4] [CE]4 |[M:1/4] [CE]2 | %16
[M:3/4] [A,DF]>[A,EG] [DFA]2 [DAd]2 | [DAc]>[DGB] [DGB]2 [B,E]2 | %18
 [CEA]3 [B,CG] [A,CF][K:bass][G,CE] |[M:3/8] [F,A,D]3 |] %20
V:3
 z6 | z [DF] .[DF]2 .[A,DF]2 | z [EG] .[EG]2[K:bass] .[F,E]2 | %3
 z[K:treble] [CG] .[CG]2[K:bass] C-[A,,C] |[M:3/8] D,A,D | z3 | %6
[M:3/4] z[K:treble] [DF] .[DF]2 .[A,DF]2 | z [EA] .[EA]2 .[A,EA]2 | z [^GB] .[GB]2[K:bass] F,^G, | %9
[M:3/8] z DC | D,[D,A,]>[D,A,] |[M:3/4] [E,A,]3[K:treble] [A,CE] [A,EG]>[A,CG] | [D,D]4 [D,D]2 | %13
 [D,A,]3 [D,F,D] [D,B,D][D,A,D] |[M:2/4] [A,,A,]4 |[M:1/4] [A,,A,]2 |[M:3/4] D,>D, D,2 F,2 | %17
 G,>G, G,2 G,,2 | A,,3 A,, A,,A,, |[M:3/8] D,3 |] %20
V:4
 x6 | A,4[K:treble] z2 | C4 z2 | B,4 A2 |[M:3/8] x3 | x3 |[M:3/4] A,4[K:treble] z2 | C4 z2 | %8
 E4 z2 |[M:3/8] x3 | x3 |[M:3/4] x6 | x6 | x6 |[M:2/4] x4 |[M:1/4] x2 |[M:3/4] x6 | x6 | %18
 x5[K:bass] x |[M:3/8] x3 |] %20
V:5
 x6 | x6 | x4[K:bass] x2 | z2[K:treble] z2[K:bass] .[E,E]2 |[M:3/8] x3 | x3 | %6
[M:3/4] x[K:treble] x5 | x6 | x4[K:bass] x2 |[M:3/8] A,3 | x3 |[M:3/4] x3[K:treble] x3 | x6 | x6 | %14
[M:2/4] x4 |[M:1/4] x2 |[M:3/4] x6 | x6 | x6 |[M:3/8] x3 |] %20

